svg/u1f60b.svg

<svg viewBox="0 0 128 128" xmlns="http://www.w3.org/2000/svg">
  <g>
    <g id="gold">
      <radialGradient id="face_1_" cx="63.6" cy="808.9" gradientTransform="matrix(1 0 0 1 0 -746)" gradientUnits="userSpaceOnUse" r="56.9597">
        <stop offset="0.5" stop-color="#FDE030"/>
        <stop offset="0.92" stop-color="#F7C02B"/>
        <stop offset="1" stop-color="#F4A223"/>
      </radialGradient>
      <path id="face" d="M63.6,118.8c-27.9,0-58-17.5-58-55.9S35.7,7,63.6,7c15.5,0,29.8,5.1,40.4,14.4 c11.5,10.2,17.6,24.6,17.6,41.5s-6.1,31.2-17.6,41.4C93.4,113.6,79,118.8,63.6,118.8z" fill="url(#face_1_)"/>
    </g>
    <g id="facial_expressions">
      <g id="face-with-stuck-out-tongue">
        <g id="mouth">
          <path d="M25.15,70.57c1.69,3.77,3.92,7.29,6.61,10.43c2.66,3.1,5.75,5.79,9.18,8 c3.41,2.22,7.11,3.95,11,5.13c7.84,2.29,16.16,2.29,24,0c3.89-1.18,7.59-2.91,11-5.13c3.47-2.2,6.61-4.9,9.3-8 c2.69-3.13,4.91-6.62,6.61-10.38l0,0c0.6-1.09,1.96-1.49,3.05-0.89c0.9,0.5,1.36,1.54,1.1,2.54c-1.61,4.32-3.88,8.37-6.72,12 C91.52,95.39,78.15,101.88,64,101.88c-14.16-0.01-27.53-6.5-36.28-17.63c-2.84-3.63-5.11-7.68-6.72-12 c-0.47-1.14,0.07-2.46,1.21-2.93s2.46,0.07,2.93,1.21L25.15,70.57z" fill="#422B0D"/>
        </g>
      </g>
      <path d="M111.49,29.67c5.33,8.6,8.11,18.84,8.11,30.23c0,16.9-6.1,31.2-17.6,41.4 c-10.6,9.3-25,14.5-40.4,14.5c-18.06,0-37-7.35-48.18-22.94c10.76,17.66,31,25.94,50.18,25.94c15.4,0,29.8-5.2,40.4-14.5 c11.5-10.2,17.6-24.5,17.6-41.4C121.6,50.16,118.13,38.84,111.49,29.67z" fill="#EB8F00"/>
      <g id="eyes">
        <g id="peepers">
          <path d="M50.15,56.1L50,55.88l-0.21-0.27c-0.08-0.11-0.16-0.2-0.26-0.29l-0.62-0.62 c-0.25-0.25-0.55-0.52-0.86-0.79c-0.66-0.57-1.4-1.03-2.2-1.39C45.07,52.17,44.22,52,43.37,52H43c-0.1-0.02-0.19-0.02-0.29,0 c-0.18,0.02-0.36,0.05-0.54,0.09c-0.42,0.1-0.82,0.23-1.22,0.39c-0.8,0.36-1.54,0.82-2.2,1.39c-0.54,0.46-1.04,0.95-1.51,1.47 l-0.57,0.64l-0.3,0.34c-1.19,1.4-3.29,1.58-4.69,0.39c-1.07-0.91-1.46-2.39-0.97-3.71l0.11-0.32c0.1-0.31,0.22-0.61,0.35-0.91 c0.48-1.09,1.09-2.11,1.83-3.04c1.75-2.31,4.21-3.99,7-4.79c0.57-0.15,1.15-0.26,1.74-0.34c0.3,0,0.74-0.09,0.87-0.09h0.76 c1.14,0.02,2.27,0.18,3.37,0.47c1.05,0.29,2.06,0.71,3,1.25c1.55,0.9,2.91,2.11,4,3.54c0.42,0.54,0.8,1.1,1.13,1.7 c0.27,0.47,0.51,0.95,0.72,1.44c0.08,0.16,0.15,0.33,0.2,0.5c0,0.13,0.08,0.24,0.11,0.33L56,53c0.57,1.77-0.4,3.67-2.17,4.24 C52.49,57.66,51.02,57.2,50.15,56.1z" fill="#422B0D"/>
          <path d="M93.48,56.1l-0.18-0.22l-0.21-0.27c-0.08-0.11-0.16-0.2-0.26-0.29l-0.62-0.62 c-0.25-0.25-0.55-0.52-0.86-0.79c-0.66-0.57-1.4-1.03-2.2-1.39C88.38,52.18,87.54,52,86.7,52h-0.41c-0.1-0.02-0.19-0.02-0.29,0 c-0.18,0.02-0.36,0.05-0.54,0.09c-0.42,0.1-0.82,0.23-1.22,0.39c-0.81,0.37-1.57,0.85-2.24,1.43c-0.54,0.46-1.04,0.95-1.52,1.47 L80,56l-0.3,0.34c-1.12,1.46-3.21,1.73-4.67,0.6C73.83,56.02,73.4,54.4,74,53l0.11-0.32c0.1-0.31,0.22-0.61,0.35-0.91 c0.47-1.1,1.09-2.13,1.82-3.08c1.75-2.31,4.21-3.99,7-4.79c0.57-0.15,1.15-0.26,1.74-0.34c0.3,0,0.73-0.09,0.87-0.09h0.76 c1.14,0.02,2.27,0.18,3.37,0.47c1.05,0.29,2.06,0.71,3,1.25c1.55,0.9,2.91,2.11,4,3.54c0.42,0.54,0.8,1.1,1.13,1.7 c0.27,0.47,0.51,0.95,0.72,1.44c0.08,0.16,0.15,0.33,0.2,0.5l0.11,0.33l0.09,0.27c0.57,1.77-0.4,3.66-2.17,4.23 c-1.33,0.43-2.78-0.01-3.65-1.1L93.48,56.1z" fill="#422B0D"/>
        </g>
      </g>
      <path d="M71.89,101.17" enable-background="new " fill="#AB3F2E" opacity="0.3"/>
      <path d="M81.53,92.07c0.88-0.41,1.75-0.85,2.6-1.31C83.28,91.22,82.41,91.66,81.53,92.07z" fill="#FF4081"/>
      <path d="M86.67,89.27c-0.83,0.52-1.67,1-2.53,1.48c1-0.54,2-1.11,2.92-1.72L86.67,89.27z" fill="#FF4081"/>
      <path d="M74,94.68L74,94.68c0.67-0.16,1.34-0.33,2-0.53C75.36,94.36,74.69,94.51,74,94.68z" fill="#FF4081"/>
      <path d="M94.16,83.21c0.71-0.73,1.41-1.48,2.08-2.26C95.57,81.73,94.87,82.48,94.16,83.21z" fill="#FF4081"/>
      <path d="M78.83,93.21c0.89-0.34,1.77-0.71,2.64-1.11C80.6,92.5,79.72,92.87,78.83,93.21z" fill="#FF4081"/>
      <path d="M76,94.16c0.93-0.27,1.83-0.58,2.73-0.92C77.85,93.58,77,93.89,76,94.16z" fill="#FF4081"/>
      <path d="M92.21,85.1c-0.61,0.54-1.24,1.06-1.89,1.55c-0.32,0.26-0.65,0.5-1,0.75 c-0.75,0.57-1.51,1.12-2.29,1.63c1-0.63,1.9-1.31,2.82-2S91.46,85.77,92.21,85.1z" fill="#FF4081"/>
      <path d="M78.75,93.24h0.08H78.75z" enable-background="new " fill="#AB3F2E" opacity="0.3"/>
      <path d="M84.13,90.76" enable-background="new " fill="#AB3F2E" opacity="0.3"/>
      <path d="M81.47,92.1h0.06H81.47z" enable-background="new " fill="#AB3F2E" opacity="0.3"/>
      <path d="M94.16,83.21c-0.07,0.07-0.13,0.14-0.2,0.2 c-0.56,0.59-1.15,1.15-1.75,1.69c0.63-0.56,1.24-1.14,1.82-1.75L94.16,83.21z" enable-background="new " fill="#AB3F2E" opacity="0.3"/>
      <polygon fill="#FF4081" points="68.35,95.64 72.06,99.58 72.42,99.95 68.35,95.64 "/>
      <path d="M73.31,100.91" enable-background="new " fill="#AB3F2E" opacity="0.3"/>
      <polygon enable-background="new " fill="#AB3F2E" opacity="0.3" points="72.42,99.95 73.31,100.91 73.32,100.9 73.32,100.89 "/>
      <path d="M109.62,89.11l-7-7.32l-0.28-0.29l0,0l-2.68-2.8l-0.79-0.83l-0.1-0.1 c-0.79,1.12-1.63,2.2-2.53,3.23c-2.66,3.1-5.75,5.79-9.18,8c-3.41,2.22-7.11,3.95-11,5.13c-2.5,0.74-5.07,1.23-7.67,1.48 l4.03,4.39l0.9,0.94l0,0l0.72,0.75l0.41,0.43l10.34,10.8c5.99,6.26,15.92,6.48,22.18,0.49l2.16-2.07 c6.27-5.99,6.51-15.92,0.52-22.2C109.64,89.13,109.63,89.12,109.62,89.11z" fill="#FF4081"/>
      <path d="M95.67,96.63l-7.81-8.17c-0.27,0.19-0.53,0.39-0.8,0.57c-0.83,0.53-1.67,1-2.52,1.51l8.36,8.74 c0.35,0.37,0.83,0.58,1.34,0.59c0.51,0.02,1-0.17,1.37-0.53c0.76-0.72,0.8-1.92,0.08-2.69C95.69,96.65,95.68,96.64,95.67,96.63z" fill="#E62B6B"/>
      <path d="M99.61,78.66l-0.79-0.83l-0.1-0.1 c-0.77,1.13-1.6,2.22-2.48,3.27c-2.66,3.1-5.75,5.79-9.18,8c-3.41,2.22-7.11,3.95-11,5.13c-2.5,0.74-5.07,1.23-7.67,1.48 l4.03,4.39l0.9,0.94l0,0C91.93,94.19,98.38,81.71,99.61,78.66z" enable-background="new " fill="#AB3F2E" opacity="0.3"/>
    </g>
  </g>
</svg>

<svg viewBox="0 0 128 128" xmlns="http://www.w3.org/2000/svg">
  <defs>
    <radialGradient id="face_1_" cx="63.6" cy="62.9" gradientUnits="userSpaceOnUse" r="56.9597">
      <stop offset="0.5" stop-color="#FDE030"/>
      <stop offset="0.92" stop-color="#F7C02B"/>
      <stop offset="1" stop-color="#F4A223"/>
    </radialGradient>
  </defs>
  <path id="face" d="M63.6,118.8 C35.7,118.8 5.6,101.3 5.6,62.9 C5.6,24.5 35.7,7 63.6,7 C79.1,7 93.4,12.1 104,21.4 C115.5,31.6 121.6,46 121.6,62.9 C121.6,79.8 115.5,94.1 104,104.3 C93.4,113.6 79,118.8 63.6,118.8 Z" fill="url(#face_1_)"/>
  <path d="M25.15,70.57 C26.84,74.34 29.07,77.86 31.76,81 C34.42,84.1 37.51,86.79 40.94,89 C44.35,91.22 48.05,92.95 51.94,94.13 C59.78,96.42 68.1,96.42 75.94,94.13 C79.83,92.95 83.53,91.22 86.94,89 C90.41,86.8 93.55,84.1 96.24,81 C98.93,77.87 101.15,74.38 102.85,70.62 L102.85,70.62 C103.45,69.53 104.81,69.13 105.9,69.73 C106.8,70.23 107.26,71.27 107,72.27 C105.39,76.59 103.12,80.64 100.28,84.27 C91.52,95.39 78.15,101.88 64,101.88 C49.84,101.87 36.47,95.38 27.72,84.25 C24.88,80.62 22.61,76.57 21,72.25 C20.53,71.11 21.07,69.79 22.21,69.32 C23.35,68.85 24.67,69.39 25.14,70.53 L25.15,70.57 Z" fill="#422B0D"/>
  <path d="M111.49,29.67 C116.82,38.27 119.6,48.51 119.6,59.9 C119.6,76.8 113.5,91.1 102,101.3 C91.4,110.6 77,115.8 61.6,115.8 C43.54,115.8 24.6,108.45 13.42,92.86 C24.18,110.52 44.42,118.8 63.6,118.8 C79,118.8 93.4,113.6 104,104.3 C115.5,94.1 121.6,79.8 121.6,62.9 C121.6,50.16 118.13,38.84 111.49,29.67 Z" fill="#EB8F00"/>
  <path d="M50.15,56.1 L50,55.88 L49.79,55.61 C49.71,55.5 49.63,55.41 49.53,55.32 L48.91,54.7 C48.66,54.45 48.36,54.18 48.05,53.91 C47.39,53.34 46.65,52.88 45.85,52.52 C45.07,52.17 44.22,52 43.37,52 L43,52 C42.9,51.98 42.81,51.98 42.71,52 C42.53,52.02 42.35,52.05 42.17,52.09 C41.75,52.19 41.35,52.32 40.95,52.48 C40.15,52.84 39.41,53.3 38.75,53.87 C38.21,54.33 37.71,54.82 37.24,55.34 L36.67,55.98 L36.37,56.32 C35.18,57.72 33.08,57.9 31.68,56.71 C30.61,55.8 30.22,54.32 30.71,53 L30.82,52.68 C30.92,52.37 31.04,52.07 31.17,51.77 C31.65,50.68 32.26,49.66 33,48.73 C34.75,46.42 37.21,44.74 40,43.94 C40.57,43.79 41.15,43.68 41.74,43.6 C42.04,43.6 42.48,43.51 42.61,43.51 L43.37,43.51 C44.51,43.53 45.64,43.69 46.74,43.98 C47.79,44.27 48.8,44.69 49.74,45.23 C51.29,46.13 52.65,47.34 53.74,48.77 C54.16,49.31 54.54,49.87 54.87,50.47 C55.14,50.94 55.38,51.42 55.59,51.91 C55.67,52.07 55.74,52.24 55.79,52.41 C55.79,52.54 55.87,52.65 55.9,52.74 L56,53 C56.57,54.77 55.6,56.67 53.83,57.24 C52.49,57.66 51.02,57.2 50.15,56.1 Z" fill="#422B0D"/>
  <path d="M93.48,56.1 L93.3,55.88 L93.09,55.61 C93.01,55.5 92.93,55.41 92.83,55.32 L92.21,54.7 C91.96,54.45 91.66,54.18 91.35,53.91 C90.69,53.34 89.95,52.88 89.15,52.52 C88.38,52.18 87.54,52 86.7,52 L86.29,52 C86.19,51.98 86.1,51.98 86,52 C85.82,52.02 85.64,52.05 85.46,52.09 C85.04,52.19 84.64,52.32 84.24,52.48 C83.43,52.85 82.67,53.33 82,53.91 C81.46,54.37 80.96,54.86 80.48,55.38 L80,56 L79.7,56.34 C78.58,57.8 76.49,58.07 75.03,56.94 C73.83,56.02 73.4,54.4 74,53 L74.11,52.68 C74.21,52.37 74.33,52.07 74.46,51.77 C74.93,50.67 75.55,49.64 76.28,48.69 C78.03,46.38 80.49,44.7 83.28,43.9 C83.85,43.75 84.43,43.64 85.02,43.56 C85.32,43.56 85.75,43.47 85.89,43.47 L86.65,43.47 C87.79,43.49 88.92,43.65 90.02,43.94 C91.07,44.23 92.08,44.65 93.02,45.19 C94.57,46.09 95.93,47.3 97.02,48.73 C97.44,49.27 97.82,49.83 98.15,50.43 C98.42,50.9 98.66,51.38 98.87,51.87 C98.95,52.03 99.02,52.2 99.07,52.37 L99.18,52.7 L99.27,52.97 C99.84,54.74 98.87,56.63 97.1,57.2 C95.77,57.63 94.32,57.19 93.45,56.1 L93.48,56.1 Z" fill="#422B0D"/>
  <path d="M86.67,89.27 C85.84,89.79 85,90.27 84.14,90.75 C85.14,90.21 86.14,89.64 87.06,89.03 L86.67,89.27 Z" fill="#FF4081"/>
  <path d="M74,94.68 L74,94.68 C74.67,94.52 75.34,94.35 76,94.15 C75.36,94.36 74.69,94.51 74,94.68 Z" fill="#FF4081"/>
  <path d="M76,94.16 C76.93,93.89 77.83,93.58 78.73,93.24 C77.85,93.58 77,93.89 76,94.16 Z" fill="#FF4081"/>
  <path d="M92.21,85.1 C91.6,85.64 90.97,86.16 90.32,86.65 C90,86.91 89.67,87.15 89.32,87.4 C88.57,87.97 87.81,88.52 87.03,89.03 C88.03,88.4 88.93,87.72 89.85,87.03 C90.77,86.34 91.46,85.77 92.21,85.1 Z" fill="#FF4081"/>
  <path d="M94.16,83.21 C94.09,83.28 94.03,83.35 93.96,83.41 C93.4,84 92.81,84.56 92.21,85.1 C92.84,84.54 93.45,83.96 94.03,83.35 L94.16,83.21 Z" fill="#AB3F2E" opacity="0.3"/>
  <path d="M68.35,95.64 L72.06,99.58 L72.42,99.95 L68.35,95.64 Z" fill="#FF4081"/>
  <path d="M72.42,99.95 L73.31,100.91 L73.32,100.9 L73.32,100.89 Z" fill="#AB3F2E" opacity="0.3"/>
  <path d="M109.62,89.11 L102.62,81.79 L102.34,81.5 L102.34,81.5 L99.66,78.7 L98.87,77.87 L98.77,77.77 C97.98,78.89 97.14,79.97 96.24,81 C93.58,84.1 90.49,86.79 87.06,89 C83.65,91.22 79.95,92.95 76.06,94.13 C73.56,94.87 70.99,95.36 68.39,95.61 L72.42,100 L73.32,100.94 L73.32,100.94 L74.04,101.69 L74.45,102.12 L84.79,112.92 C90.78,119.18 100.71,119.4 106.97,113.41 L109.13,111.34 C115.4,105.35 115.64,95.42 109.65,89.14 C109.64,89.13 109.63,89.12 109.62,89.11 Z" fill="#FF4081"/>
  <path d="M95.67,96.63 L87.86,88.46 C87.59,88.65 87.33,88.85 87.06,89.03 C86.23,89.56 85.39,90.03 84.54,90.54 L92.9,99.28 C93.25,99.65 93.73,99.86 94.24,99.87 C94.75,99.89 95.24,99.7 95.61,99.34 C96.37,98.62 96.41,97.42 95.69,96.65 C95.69,96.65 95.68,96.64 95.67,96.63 Z" fill="#E62B6B"/>
  <path d="M99.61,78.66 L98.82,77.83 L98.72,77.73 C97.95,78.86 97.12,79.95 96.24,81 C93.58,84.1 90.49,86.79 87.06,89 C83.65,91.22 79.95,92.95 76.06,94.13 C73.56,94.87 70.99,95.36 68.39,95.61 L72.42,100 L73.32,100.94 L73.32,100.94 C91.93,94.19 98.38,81.71 99.61,78.66 Z" fill="#AB3F2E" opacity="0.3"/>
</svg>
